argon/scalable/status/weather-severe-alert.svg

<?xml version="1.0" encoding="UTF-8" standalone="no"?>
<svg
   xmlns:dc="http://purl.org/dc/elements/1.1/"
   xmlns:cc="http://creativecommons.org/ns#"
   xmlns:rdf="http://www.w3.org/1999/02/22-rdf-syntax-ns#"
   xmlns:svg="http://www.w3.org/2000/svg"
   xmlns="http://www.w3.org/2000/svg"
   xmlns:sodipodi="http://sodipodi.sourceforge.net/DTD/sodipodi-0.dtd"
   xmlns:inkscape="http://www.inkscape.org/namespaces/inkscape"
   height="16"
   width="16.001"
   version="1.1"
   id="svg6"
   sodipodi:docname="weather-severe-alert.svg"
   inkscape:version="1.0.1 (3bc2e813f5, 2020-09-07)">
  <metadata
     id="metadata12">
    <rdf:RDF>
      <cc:Work
         rdf:about="">
        <dc:format>image/svg+xml</dc:format>
        <dc:type
           rdf:resource="http://purl.org/dc/dcmitype/StillImage" />
        <dc:title />
      </cc:Work>
    </rdf:RDF>
  </metadata>
  <defs
     id="defs10" />
  <sodipodi:namedview
     pagecolor="#333333"
     bordercolor="#666666"
     borderopacity="1"
     objecttolerance="10"
     gridtolerance="10"
     guidetolerance="10"
     inkscape:pageopacity="0"
     inkscape:pageshadow="2"
     inkscape:window-width="1836"
     inkscape:window-height="1016"
     id="namedview8"
     showgrid="false"
     inkscape:zoom="32"
     inkscape:cx="9.633695"
     inkscape:cy="7.9844311"
     inkscape:window-x="2004"
     inkscape:window-y="27"
     inkscape:window-maximized="1"
     inkscape:current-layer="layer1"
     inkscape:document-rotation="0" />
  <g
     inkscape:groupmode="layer"
     id="layer1"
     inkscape:label="Icon">
    <g
       id="g834">
      <path
         id="path2"
         style="line-height:normal;-inkscape-font-specification:sans-serif;text-indent:0;text-align:start;text-decoration:none;text-decoration-line:none;text-transform:none;fill:#666666;marker:none"
         d="m 8.640625,0.66796875 c -2.158,0.002 -3.9931406,1.33142185 -4.8691406,3.23242185 l -0.060547,0.1289063 -0.1386719,0.00977 C 1.5782658,4.1830537 0,5.9098125 0,8.0078125 0,10.200813 1.7158906,12 3.8378906,12 c 3.0944011,0 6.1888024,0 9.2832034,0 1.591,0 2.876953,-1.350281 2.876953,-2.9882812 0.0042,-1.1917911 -0.707206,-2.2697051 -1.804688,-2.734375 L 14.056641,6.21875 14.046875,6.0703125 c -0.136,-2.993 -2.486297,-5.40034375 -5.4042969,-5.40234375 z"
         sodipodi:nodetypes="ccccsccccccsc" />
      <path
         class="error"
         color="#000000"
         d="m 7.291,6 v 2.662 c 0,0.793 0.03,1.517 0.086,2.168 0.057,0.642 0.128,1.284 0.213,1.926 H 8.41 C 8.495,12.114 8.567,11.472 8.623,10.83 8.68,10.179 8.709,9.455 8.709,8.662 V 6 Z m 0.71,8.102 c -0.294,0 -0.524,0.094 -0.694,0.283 a 0.965,0.965 0 0 0 -0.256,0.666 c 0,0.255 0.086,0.477 0.256,0.666 C 7.477,15.906 7.707,16 8,16 8.293,16 8.524,15.906 8.694,15.717 A 0.965,0.965 0 0 0 8.949,15.051 0.965,0.965 0 0 0 8.694,14.385 C 8.524,14.195 8.293,14.102 8,14.102 Z"
         fill="#da1636"
         font-family="sans-serif"
         font-weight="400"
         overflow="visible"
         style="line-height:normal;font-variant-ligatures:none;font-variant-position:normal;font-variant-caps:normal;font-variant-numeric:normal;font-variant-alternates:normal;font-feature-settings:normal;text-indent:0;text-align:start;text-decoration:none;text-decoration-line:none;text-decoration-style:solid;text-decoration-color:#000000;text-transform:none;shape-padding:0;isolation:auto;mix-blend-mode:normal;fill:#da2214;fill-opacity:1;marker:none"
         id="path4" />
    </g>
  </g>
</svg>

<?xml version="1.0" encoding="UTF-8" standalone="no"?>
<svg
   xmlns:dc="http://purl.org/dc/elements/1.1/"
   xmlns:cc="http://creativecommons.org/ns#"
   xmlns:rdf="http://www.w3.org/1999/02/22-rdf-syntax-ns#"
   xmlns:svg="http://www.w3.org/2000/svg"
   xmlns="http://www.w3.org/2000/svg"
   xmlns:sodipodi="http://sodipodi.sourceforge.net/DTD/sodipodi-0.dtd"
   xmlns:inkscape="http://www.inkscape.org/namespaces/inkscape"
   height="16"
   width="16.001"
   version="1.1"
   id="svg6"
   sodipodi:docname="weather-severe-alert.svg"
   inkscape:version="1.0.1 (3bc2e813f5, 2020-09-07)">
  <metadata
     id="metadata12">
    <rdf:RDF>
      <cc:Work
         rdf:about="">
        <dc:format>image/svg+xml</dc:format>
        <dc:type
           rdf:resource="http://purl.org/dc/dcmitype/StillImage" />
        <dc:title></dc:title>
      </cc:Work>
    </rdf:RDF>
  </metadata>
  <defs
     id="defs10" />
  <sodipodi:namedview
     pagecolor="#333333"
     bordercolor="#666666"
     borderopacity="1"
     objecttolerance="10"
     gridtolerance="10"
     guidetolerance="10"
     inkscape:pageopacity="0"
     inkscape:pageshadow="2"
     inkscape:window-width="1836"
     inkscape:window-height="1016"
     id="namedview8"
     showgrid="false"
     inkscape:zoom="26.9375"
     inkscape:cx="8.5401046"
     inkscape:cy="8.8427916"
     inkscape:window-x="2004"
     inkscape:window-y="27"
     inkscape:window-maximized="1"
     inkscape:current-layer="svg6"
     inkscape:document-rotation="0" />
  <path
     color="#000"
     d="M8.64.668C6.482.67 4.648 1.999 3.772 3.9l-.061.13-.139.01C1.578 4.184 0 5.91 0 8.008 0 10.201 1.716 12 3.838 12H6v-1H3.838C2.281 11 1 9.679 1 8.008c0-1.597 1.184-2.866 2.644-2.973l.723-.05.31-.663v-.004c.729-1.58 2.213-2.649 3.961-2.65 2.368.002 4.292 1.952 4.405 4.447v.01l.05.776.704.296a1.944 1.944 0 011.195 1.815c.01 1.114-.846 1.988-1.871 1.988H9.998v1h3.123c1.591 0 2.877-1.35 2.877-2.988a2.958 2.958 0 00-1.805-2.735l-.136-.058-.01-.149C13.911 3.077 11.56.67 8.642.668z"
     fill="gray"
     font-family="sans-serif"
     font-weight="400"
     overflow="visible"
     style="line-height:normal;-inkscape-font-specification:sans-serif;text-indent:0;text-align:start;text-decoration-line:none;text-transform:none;marker:none;fill:#ffffff"
     id="path2" />
  <path
     class="error"
     color="#000"
     d="M7.291 6v2.662c0 .793.03 1.517.086 2.168.057.642.128 1.284.213 1.926h.82c.085-.642.157-1.284.213-1.926.057-.651.086-1.375.086-2.168V6zm.71 8.102c-.294 0-.524.094-.694.283a.965.965 0 00-.256.666c0 .255.086.477.256.666.17.189.4.283.693.283.293 0 .524-.094.694-.283a.965.965 0 00.255-.666.965.965 0 00-.255-.666c-.17-.19-.401-.283-.694-.283z"
     fill="#da1636"
     font-family="sans-serif"
     font-weight="400"
     overflow="visible"
     style="line-height:normal;font-variant-ligatures:none;font-variant-position:normal;font-variant-caps:normal;font-variant-numeric:normal;font-variant-alternates:normal;font-feature-settings:normal;text-indent:0;text-align:start;text-decoration-line:none;text-decoration-style:solid;text-decoration-color:#000;text-transform:none;shape-padding:0;isolation:auto;mix-blend-mode:normal;marker:none;fill:#da2214;fill-opacity:1"
     id="path4" />
</svg>
